<?xml version="1.0" encoding="UTF-8"?>
<map version="1.10" tiledversion="1.11" orientation="orthogonal" renderorder="right-down" width="37" height="43" tilewidth="8" tileheight="8" infinite="0" nextlayerid="3" nextobjectid="6">
  <tileset firstgid="1" name="level08" tilewidth="8" tileheight="8" tilecount="188" columns="16">
    <image source="generated/level08_tiles.png" width="128" height="96"/>
  </tileset>
  <layer id="1" name="World" width="37" height="43">
    <data encoding="csv">
1,1,1,1,1,1,1,1,1,1,1,1,1,1,1,1,1,1,1,1,1,1,1,1,1,1,1,1,1,1,1,1,1,1,1,1,1
1,1,1,1,1,1,1,1,1,1,1,1,1,1,1,1,1,1,1,1,1,1,1,1,1,1,1,1,1,1,1,1,1,1,1,1,1
1,1,1,1,1,1,1,1,1,1,1,1,1,1,1,1,1,1,1,1,1,1,1,1,1,1,1,1,1,1,1,1,1,1,1,1,1
1,1,1,1,1,1,1,1,1,1,1,1,1,1,1,1,1,1,1,1,1,1,1,1,1,1,1,1,1,1,1,1,1,1,1,1,1
1,1,1,1,1,1,1,1,1,1,1,1,1,2,3,3,3,3,3,4,1,1,1,1,1,1,1,1,1,1,1,1,1,1,1,1,1
1,1,1,1,1,1,1,1,1,1,1,1,1,5,6,6,6,6,6,7,1,1,1,1,1,1,1,1,1,1,1,1,1,1,1,1,1
1,1,1,1,1,1,1,1,1,1,1,1,1,5,8,8,8,8,8,7,1,1,1,1,1,1,1,1,1,1,1,1,1,1,1,1,1
1,1,1,1,1,1,1,1,1,1,1,1,1,5,9,9,9,9,9,7,1,1,1,1,1,1,1,1,1,1,1,1,1,1,1,1,1
1,1,1,1,1,1,1,1,1,1,1,1,1,5,9,10,11,12,9,7,1,1,1,1,1,1,1,1,1,1,1,1,1,1,1,1,1
1,1,1,1,1,1,1,1,1,1,1,1,1,5,9,13,14,15,9,7,1,1,1,1,1,1,1,1,1,1,1,1,1,1,1,1,1
1,1,1,1,2,3,3,3,3,3,3,3,3,16,17,18,19,20,17,7,1,1,1,1,1,1,1,1,1,1,1,1,1,1,1,1,1
1,1,1,1,5,6,6,6,6,6,6,6,6,6,21,22,19,23,21,7,1,1,1,1,1,1,1,1,1,1,1,1,1,1,1,1,1
1,1,1,1,5,24,25,24,25,24,25,24,25,24,26,27,28,29,26,7,1,1,1,1,1,1,1,1,1,1,1,1,1,1,1,1,1
1,1,1,1,5,25,24,25,24,25,24,25,24,25,30,31,32,33,30,7,1,1,1,1,1,1,1,1,1,1,1,1,1,1,1,1,1
1,1,1,1,5,24,25,24,25,24,34,35,34,24,36,37,38,39,36,7,1,1,1,1,1,1,1,1,1,1,1,1,1,1,1,1,1
1,1,1,1,5,25,24,25,24,25,40,41,42,25,30,31,32,33,30,7,1,1,1,1,1,1,1,1,1,1,1,1,1,1,1,1,1
1,1,1,1,5,24,25,24,25,24,43,44,44,24,45,37,38,39,46,7,1,1,1,1,1,1,1,1,1,1,1,1,1,1,1,1,1
1,1,1,1,5,47,48,48,48,48,49,44,44,25,45,31,32,33,46,7,1,1,1,1,1,1,1,1,1,1,1,1,1,1,1,1,1
1,1,1,1,5,50,51,52,52,52,53,54,55,24,36,37,38,39,36,7,1,1,1,1,1,1,1,1,1,1,1,1,1,1,1,1,1
1,1,1,1,5,50,51,56,57,58,59,60,61,33,30,31,32,33,30,7,1,1,1,1,1,1,1,1,1,1,1,1,1,1,1,1,1
1,1,1,1,5,50,51,62,63,64,65,66,67,39,36,37,38,39,36,7,1,1,1,1,1,1,1,1,1,1,1,1,1,1,1,1,1
1,1,1,1,5,50,51,31,32,33,30,31,32,33,30,31,32,33,30,68,3,3,3,3,3,3,3,3,3,3,3,3,4,1,1,1,1
1,1,1,1,5,69,70,37,38,39,36,37,38,39,36,37,38,39,36,8,8,8,8,8,8,8,8,8,8,8,8,8,7,1,1,1,1
1,1,1,1,5,71,72,31,32,33,30,31,32,33,30,31,32,33,30,9,9,9,9,73,74,74,74,74,9,9,9,9,7,1,1,1,1
1,1,1,1,5,75,76,77,38,39,36,37,38,39,36,37,38,39,46,9,9,9,9,78,79,80,81,82,9,9,9,9,7,1,1,1,1
1,1,1,1,5,83,84,85,32,86,87,87,87,33,30,31,32,33,88,9,9,9,9,78,89,90,91,92,9,9,9,9,7,1,1,1,1
1,1,1,1,5,93,94,95,38,86,96,87,97,39,36,37,38,39,98,99,17,99,17,100,101,102,103,104,17,99,17,99,7,1,1,1,1
1,1,1,1,5,105,105,106,32,107,108,109,110,33,30,31,32,33,44,111,21,111,112,113,114,115,116,117,21,111,21,111,7,1,1,1,1
1,1,1,1,5,105,105,118,38,39,36,37,38,39,36,37,38,39,44,119,26,120,121,122,123,124,125,126,26,127,128,129,7,1,1,1,1
1,1,1,1,5,30,31,32,33,30,30,31,32,33,30,30,31,130,130,130,130,131,132,133,134,135,136,137,130,138,139,140,7,1,1,1,1
1,1,1,1,5,36,37,38,39,36,36,37,38,39,36,36,37,130,130,130,130,130,130,130,130,130,130,130,130,130,141,142,7,1,1,1,1
1,1,1,1,5,143,144,145,146,145,146,145,146,145,146,145,146,130,130,130,130,130,130,130,130,130,130,130,130,141,142,142,7,1,1,1,1
1,1,1,1,5,147,148,149,150,149,150,149,150,149,150,149,150,151,152,153,130,130,130,130,130,130,130,130,130,142,142,142,7,1,1,1,1
1,1,1,1,5,154,155,156,157,156,157,156,157,156,157,156,157,158,159,160,130,130,130,130,130,130,130,130,130,142,142,142,7,1,1,1,1
1,1,1,1,161,162,163,164,165,164,165,164,165,164,165,164,165,166,167,168,130,130,130,130,130,130,130,130,130,169,170,142,7,1,1,1,1
1,1,1,1,171,172,172,172,172,173,174,174,174,175,172,172,176,177,178,179,130,130,130,130,130,130,130,130,130,180,181,142,7,1,1,1,1
1,1,1,1,1,1,1,1,1,1,1,1,1,1,1,1,161,182,183,184,130,130,130,130,130,130,130,130,130,185,186,142,7,1,1,1,1
1,1,1,1,1,1,1,1,1,1,1,1,1,1,1,1,161,130,130,130,130,130,130,130,130,130,130,130,130,187,142,142,7,1,1,1,1
1,1,1,1,1,1,1,1,1,1,1,1,1,1,1,1,171,172,172,172,172,172,172,172,172,172,172,172,172,172,172,172,188,1,1,1,1
1,1,1,1,1,1,1,1,1,1,1,1,1,1,1,1,1,1,1,1,1,1,1,1,1,1,1,1,1,1,1,1,1,1,1,1,1
1,1,1,1,1,1,1,1,1,1,1,1,1,1,1,1,1,1,1,1,1,1,1,1,1,1,1,1,1,1,1,1,1,1,1,1,1
1,1,1,1,1,1,1,1,1,1,1,1,1,1,1,1,1,1,1,1,1,1,1,1,1,1,1,1,1,1,1,1,1,1,1,1,1
1,1,1,1,1,1,1,1,1,1,1,1,1,1,1,1,1,1,1,1,1,1,1,1,1,1,1,1,1,1,1,1,1,1,1,1,1
    </data>
  </layer>
  <objectgroup id="2" name="Actors">
    <object id="1" name="Player spawn" type="player" x="123" y="115"/>
    <object id="2" name="Portal to 9" type="fgtile" x="76" y="281" width="16" height="16"><properties><property name="portTo" type="int" value="9"/><property name="num" type="int" value="10"/></properties></object>
    <object id="3" name="Portal to 9" type="fgtile" x="92" y="281" width="16" height="16"><properties><property name="portTo" type="int" value="9"/><property name="num" type="int" value="10"/></properties></object>
    <object id="4" name="Portal to 7" type="fgtile" x="116" y="104" width="16" height="16"><properties><property name="portTo" type="int" value="7"/><property name="num" type="int" value="150"/></properties></object>
    <object id="5" name="Portal to 7" type="fgtile" x="132" y="104" width="16" height="16"><properties><property name="portTo" type="int" value="7"/><property name="num" type="int" value="150"/></properties></object>
  </objectgroup>
</map>
