<?xml version="1.0" encoding="UTF-8"?>
<map version="1.10" tiledversion="1.11" orientation="orthogonal" renderorder="right-down" width="29" height="24" tilewidth="8" tileheight="8" infinite="0" nextlayerid="3" nextobjectid="5">
  <tileset firstgid="1" name="level07" tilewidth="8" tileheight="8" tilecount="100" columns="16">
    <image source="generated/level07_tiles.png" width="128" height="56"/>
  </tileset>
  <layer id="1" name="World" width="29" height="24">
    <data encoding="csv">
1,1,1,1,1,1,1,1,1,1,1,1,1,1,1,1,1,1,1,1,1,1,1,1,1,1,1,1,1
1,1,1,1,1,1,1,1,1,1,1,1,1,1,1,1,1,1,1,1,1,1,1,1,1,1,1,1,1
1,1,1,1,1,1,1,1,1,1,1,1,1,1,1,1,1,1,1,1,1,1,1,1,1,1,1,1,1
1,1,1,1,1,1,1,1,1,1,1,1,1,1,1,1,1,1,1,1,1,1,1,1,1,1,1,1,1
1,1,1,1,2,3,3,3,3,3,3,3,3,3,3,3,3,3,3,3,3,3,3,3,4,1,1,1,1
1,1,1,1,5,6,6,6,6,6,6,6,6,6,6,6,6,6,6,6,6,6,6,6,7,1,1,1,1
1,1,1,1,5,8,8,8,8,8,8,8,8,8,8,8,8,8,8,8,8,8,8,8,7,1,1,1,1
1,1,1,1,5,9,9,9,10,10,10,10,11,12,12,12,12,12,10,10,10,10,10,10,7,1,1,1,1
1,1,1,1,5,13,14,15,10,10,10,10,16,17,18,19,20,21,10,22,23,10,10,10,7,1,1,1,1
1,1,1,1,5,24,25,26,10,10,10,10,16,27,28,29,30,31,10,32,33,10,10,10,7,1,1,1,1
1,1,1,1,5,34,35,36,10,10,37,38,39,40,41,42,43,44,10,10,45,46,47,48,7,1,1,1,1
1,1,1,1,5,49,50,51,52,53,54,55,56,57,58,59,60,61,10,10,62,63,64,65,7,1,1,1,1
1,1,1,1,5,66,67,68,69,70,71,72,73,74,75,76,30,31,77,77,78,79,80,81,7,1,1,1,1
1,1,1,1,5,82,83,84,85,86,86,87,88,89,90,91,92,93,94,94,95,96,96,94,7,1,1,1,1
1,1,1,1,5,94,94,94,94,94,94,94,94,94,94,94,94,94,94,94,95,96,96,94,7,1,1,1,1
1,1,1,1,5,94,94,94,94,94,94,94,94,94,94,94,94,94,94,94,95,96,96,94,7,1,1,1,1
1,1,1,1,5,94,94,94,94,94,94,94,94,94,94,94,94,94,94,94,94,94,94,94,7,1,1,1,1
1,1,1,1,97,94,94,94,94,94,94,94,94,94,94,94,94,94,94,94,94,98,99,94,1,1,1,1,1
1,1,1,1,100,1,1,1,1,1,1,1,1,1,1,1,1,1,1,1,1,1,1,1,1,1,1,1,1
1,1,1,1,1,1,1,1,1,1,1,1,1,1,1,1,1,1,1,1,1,1,1,1,1,1,1,1,1
1,1,1,1,1,1,1,1,1,1,1,1,1,1,1,1,1,1,1,1,1,1,1,1,1,1,1,1,1
1,1,1,1,1,1,1,1,1,1,1,1,1,1,1,1,1,1,1,1,1,1,1,1,1,1,1,1,1
1,1,1,1,1,1,1,1,1,1,1,1,1,1,1,1,1,1,1,1,1,1,1,1,1,1,1,1,1
1,1,1,1,1,1,1,1,1,1,1,1,1,1,1,1,1,1,1,1,1,1,1,1,1,1,1,1,1
    </data>
  </layer>
  <objectgroup id="2" name="Actors">
    <object id="1" name="Player spawn" type="player" x="147" y="125"/>
    <object id="2" name="Portal to 8" type="fgtile" x="45" y="144" width="16" height="16"><properties><property name="portTo" type="int" value="8"/><property name="num" type="int" value="10"/></properties></object>
    <object id="3" name="Portal to 8" type="fgtile" x="61" y="144" width="16" height="16"><properties><property name="portTo" type="int" value="8"/><property name="num" type="int" value="10"/></properties></object>
    <object id="4" name="Portal to 6" type="fgtile" x="121" y="107" width="16" height="16"><properties><property name="portTo" type="int" value="6"/><property name="num" type="int" value="10"/></properties></object>
  </objectgroup>
</map>
